src/components/content/Icon/functional/email.svg

<svg width="100" height="100" viewBox="0 0 100 100" fill="none" xmlns="http://www.w3.org/2000/svg">
<path d="M73.5798 33.838H24.3998C24.1738 33.838 23.9558 33.914 23.7778 34.054L23.5978 34.196C23.3738 34.372 23.2378 34.636 23.2218 34.922C23.2058 35.206 23.3098 35.484 23.5118 35.686L39.9358 52.176L27.6538 64.454C27.4665 64.6416 27.3613 64.8959 27.3613 65.161C27.3613 65.4261 27.4665 65.6804 27.6538 65.868C27.8498 66.064 28.1058 66.16 28.3618 66.16C28.6178 66.16 28.8738 66.062 29.0698 65.868L41.3498 53.594L47.4958 59.764C48.1718 60.446 49.0758 60.822 50.0398 60.826H50.0518C51.0138 60.826 51.9158 60.454 52.5958 59.776L73.7898 38.67C74.1818 38.28 74.1818 37.648 73.7918 37.256C73.4018 36.864 72.7678 36.864 72.3778 37.254L51.1838 58.36C50.8818 58.662 50.4798 58.826 50.0498 58.826H50.0458C49.6178 58.826 49.2158 58.658 48.9138 58.354L26.4878 35.84H73.5818C74.2078 35.84 74.7178 36.35 74.7178 36.976V66.868C74.7178 67.494 74.2078 68.004 73.5818 68.004H26.6078C25.9818 68.004 25.4718 67.494 25.4718 66.868V40.912C25.4718 40.36 25.0238 39.912 24.4718 39.912C23.9198 39.912 23.4718 40.36 23.4718 40.912V66.868C23.4718 68.596 24.8778 70.004 26.6078 70.004H73.5818C75.3098 70.004 76.7178 68.598 76.7178 66.868V36.976C76.7178 35.248 75.3118 33.84 73.5818 33.84L73.5798 33.838Z" fill="#0B301A"/>
<path d="M71.8238 66.16C72.0798 66.16 72.3358 66.062 72.5318 65.868C72.7191 65.6804 72.8244 65.4261 72.8244 65.161C72.8244 64.8959 72.7191 64.6416 72.5318 64.454L62.5078 54.432C62.3202 54.2447 62.0659 54.1395 61.8008 54.1395C61.5357 54.1395 61.2814 54.2447 61.0938 54.432C60.9065 54.6196 60.8013 54.8739 60.8013 55.139C60.8013 55.4041 60.9065 55.6584 61.0938 55.846L71.1178 65.868C71.2107 65.961 71.3211 66.0347 71.4426 66.0848C71.5641 66.1349 71.6944 66.1605 71.8258 66.16H71.8238Z" fill="#0B301A"/>
</svg>

<svg xmlns="http://www.w3.org/2000/svg" width="100" height="100" fill="none" viewBox="0 0 100 100"><path fill="#0b301a" d="M73.58 33.838H24.4c-.226 0-.444.076-.622.216l-.18.142a1 1 0 0 0-.086 1.49l16.424 16.49-12.282 12.278a1 1 0 0 0 1.416 1.414l12.28-12.274 6.146 6.17a3.58 3.58 0 0 0 2.544 1.062h.012c.962 0 1.864-.372 2.544-1.05L73.79 38.67a.999.999 0 1 0-1.412-1.416L51.184 58.36a1.6 1.6 0 0 1-1.134.466h-.004c-.428 0-.83-.168-1.132-.472L26.488 35.84h47.094c.626 0 1.136.51 1.136 1.136v29.892c0 .626-.51 1.136-1.136 1.136H26.608c-.626 0-1.136-.51-1.136-1.136V40.912a1 1 0 0 0-2 0v25.956a3.14 3.14 0 0 0 3.136 3.136h46.974a3.14 3.14 0 0 0 3.136-3.136V36.976a3.14 3.14 0 0 0-3.136-3.136z"/><path fill="#0b301a" d="M71.824 66.16a1 1 0 0 0 .708-1.706L62.508 54.432a1 1 0 0 0-1.414 1.414l10.024 10.022a1 1 0 0 0 .708.292z"/></svg>
